X: 1582
T: Men From Mallow, The
R:hornpipe
N:"Collected by F. O'Neill"
B:O'Neill's 1582
Z:Transcribed by Michael Hogan
M:C|
L:1/8
K:D
(AG) | F2 (EF) D2 (3ABc | d2 (cB) ABcG | E2 (DE) C2 (CA) | EDEF G2 (AG)|
F2 (EF) D2 (3ABc | d2 (cB) ABcG | FDFA GECE | D2 DD D2 :|
(3ABc | d2 (cd) AFDA | d2 (cd) A2 (AB) | cBcA GECE | cBcA G2 (3ABc |
d2 (cd) AFDA | d2 (cd) ABcA | FDFA GECE | D2 DD D2 (3ABc |
d2 (cd) AFDA | d2 (cd) A2 (AB) | cBcA GECE | cBcA G2 (3ABc |
dcBd cBAc | BAGB A2 D2 | FDFA GECF | D2 DD D2 :||


